X: 468
T: A Week In January
R: reel
M: 4/4
K: Dmajor
|:DA,DE {E}FA {e}fe|edcd A2 d{ed}c|BDGA A2 AF|GAFG A,CEC|
{C}DA,DE {E}FA {e}fe|e{fe}dcd A2 d{ed}c|BDGA A2 AF|1 GA,CD [D4A,4]:|2 GA,CD DE{E}FG||
|:A3 B A{BA}FDF|BGcA d2 d{ed}B|A3 B AFDF|{F}GAFG A,CEG|
A3 B A{BA}FDF|BGcA d2 d{ed}B|Afe{fe}d AGFG|1 GECD DE{E}FG:|2 GECD [D4A,4]||

